X:29
T:On The Wings Of A Skorie
M:4/4
L:1/8
R:reel
K:Emin
|:BE E/E/E BEcE|BE E/E/E GFGB|ABGB AGFA|GEED EFGA|
BE E/E/E BEcE|BE E/E/E GFGB|ABGB AGFA|1 GEED E3 A:|2 GEED E3 D||
|:EB B/B/B  BAFA|GEDE GABd|Beed efge|fedf e2 gf|
eB B/B/B BAFA|GEDE GABd|f/g/adf efdB|1 ABdf e3 D:|2 ABdf e3 A||

